packages/foundations/assets/icons/functional/images/security/visible.svg

<svg xmlns="http://www.w3.org/2000/svg" width="32" height="32" fill="none"><path fill="#1A1C1F" fill-rule="evenodd" d="M14.933 7.039c-3.737.264-6.75 1.682-9.574 4.507-.895.895-1.469 1.566-2.372 2.774-.849 1.135-.973 1.348-.973 1.68 0 .33.123.544.952 1.655 2.711 3.633 5.449 5.746 8.734 6.742 1.36.412 2.622.583 4.3.583 1.32 0 1.879-.049 3.009-.268 3.796-.733 6.976-2.972 10.025-7.057.829-1.111.952-1.325.952-1.655s-.123-.544-.952-1.655c-2.71-3.632-5.505-5.786-8.741-6.738-1.612-.474-3.641-.689-5.36-.568m3.147 2.106c2.163.329 4.052 1.164 5.813 2.568.582.463 1.932 1.813 2.501 2.5.668.806 1.339 1.704 1.339 1.79-.001.098-.845 1.205-1.537 2.014-.611.715-1.711 1.804-2.32 2.298-1.673 1.356-3.564 2.196-5.716 2.54-.726.116-2.723.163-3.499.083-3.827-.395-7.009-2.434-10.066-6.449l-.379-.498.411-.542c3.025-3.996 6.074-5.954 9.933-6.379.668-.073 2.852-.027 3.52.075m-2.667 1.894c-.593.075-1.018.208-1.626.509a4.93 4.93 0 0 0-2.626 3.214 5.24 5.24 0 0 0 0 2.476 5.07 5.07 0 0 0 3.601 3.601 5.24 5.24 0 0 0 2.476 0 5.07 5.07 0 0 0 3.601-3.601 5.24 5.24 0 0 0 0-2.476 4.95 4.95 0 0 0-2.626-3.215c-.883-.44-1.892-.623-2.8-.508m1.607 2.151c.866.328 1.449.908 1.792 1.782.127.323.142.432.142 1.028s-.015.705-.142 1.028c-.475 1.211-1.548 1.959-2.812 1.959s-2.337-.748-2.812-1.959c-.127-.323-.142-.432-.142-1.028 0-.592.015-.706.139-1.02.396-1.008 1.187-1.696 2.202-1.916.401-.087 1.244-.022 1.633.126"/></svg>

<svg width="32" height="32" viewBox="0 0 32 32" fill="none" xmlns="http://www.w3.org/2000/svg"><path d="M14.933 7.039 C 11.196 7.303,8.183 8.721,5.359 11.546 C 4.464 12.441,3.890 13.112,2.987 14.320 C 2.138 15.455,2.014 15.668,2.014 16.000 C 2.014 16.330,2.137 16.544,2.966 17.655 C 5.677 21.288,8.415 23.401,11.700 24.397 C 13.060 24.809,14.322 24.980,16.000 24.980 C 17.320 24.980,17.879 24.931,19.009 24.712 C 22.805 23.979,25.985 21.740,29.034 17.655 C 29.863 16.544,29.986 16.330,29.986 16.000 C 29.986 15.670,29.863 15.456,29.034 14.345 C 26.324 10.713,23.529 8.559,20.293 7.607 C 18.681 7.133,16.652 6.918,14.933 7.039 M18.080 9.145 C 20.243 9.474,22.132 10.309,23.893 11.713 C 24.475 12.176,25.825 13.526,26.394 14.213 C 27.062 15.019,27.733 15.917,27.733 16.003 C 27.732 16.101,26.888 17.208,26.196 18.017 C 25.585 18.732,24.485 19.821,23.876 20.315 C 22.203 21.671,20.312 22.511,18.160 22.855 C 17.434 22.971,15.437 23.018,14.661 22.938 C 10.834 22.543,7.652 20.504,4.595 16.489 L 4.216 15.991 4.627 15.449 C 7.652 11.453,10.701 9.495,14.560 9.070 C 15.228 8.997,17.412 9.043,18.080 9.145 M15.413 11.039 C 14.820 11.114,14.395 11.247,13.787 11.548 C 12.462 12.205,11.543 13.329,11.161 14.762 C 10.963 15.505,10.963 16.495,11.161 17.238 C 11.631 19.000,13.000 20.369,14.762 20.839 C 15.505 21.037,16.495 21.037,17.238 20.839 C 19.000 20.369,20.369 19.000,20.839 17.238 C 21.037 16.495,21.037 15.505,20.839 14.762 C 20.458 13.334,19.537 12.206,18.213 11.547 C 17.330 11.107,16.321 10.924,15.413 11.039 M17.020 13.190 C 17.886 13.518,18.469 14.098,18.812 14.972 C 18.939 15.295,18.954 15.404,18.954 16.000 C 18.954 16.596,18.939 16.705,18.812 17.028 C 18.337 18.239,17.264 18.987,16.000 18.987 C 14.736 18.987,13.663 18.239,13.188 17.028 C 13.061 16.705,13.046 16.596,13.046 16.000 C 13.046 15.408,13.061 15.294,13.185 14.980 C 13.581 13.972,14.372 13.284,15.387 13.064 C 15.788 12.977,16.631 13.042,17.020 13.190 " fill="#1A1C1F" stroke="none" fill-rule="evenodd"></path></svg>
